icons/livewire-dark.svg

<svg width="256" height="256" viewBox="0 0 256 256" fill="none" xmlns="http://www.w3.org/2000/svg">
<path d="M196 0H60C26.8629 0 0 26.8629 0 60V196C0 229.137 26.8629 256 60 256H196C229.137 256 256 229.137 256 196V60C256 26.8629 229.137 0 196 0Z" fill="#282828"/>
<path fill-rule="evenodd" clip-rule="evenodd" d="M206.912 160.884C203.651 165.814 201.174 171.887 194.545 171.887C183.388 171.887 182.784 154.684 171.621 154.684C160.458 154.684 161.062 171.887 149.905 171.887C138.747 171.887 138.144 154.684 126.981 154.684C115.818 154.684 116.421 171.887 105.264 171.887C94.1072 171.887 93.504 154.684 82.3409 154.684C71.1779 154.684 71.7811 171.887 60.624 171.887C57.1176 171.887 54.6536 170.188 52.5766 167.858C44.593 153.964 40 137.683 40 120.276C40 69.3132 79.3682 28 127.931 28C176.494 28 215.863 69.3132 215.863 120.276C215.863 134.847 212.644 148.63 206.912 160.884Z" fill="#FB70A9"/>
<path d="M92.8158 151.774V189.994C92.8158 196.853 87.2556 202.413 80.3969 202.413C73.5381 202.413 67.978 196.853 67.978 189.994V143.854C70.2959 139.599 72.9438 135.916 77.7175 135.916C85.4886 135.916 88.2038 145.678 92.8158 151.774ZM139.731 153.765V214.205C139.731 221.826 133.554 228.004 125.933 228.004C118.312 228.004 112.134 221.826 112.134 214.205V145.799C114.732 140.789 117.411 135.916 122.901 135.916C131.594 135.916 133.96 148.13 139.731 153.765ZM183.887 152.656V196.534C183.887 203.392 178.327 208.953 171.469 208.953C164.61 208.953 159.05 203.392 159.05 196.534V142.603C161.212 138.902 163.787 135.916 168.085 135.916C176.243 135.916 178.829 146.674 183.887 152.656Z" fill="#4E56A6"/>
<path d="M92.8158 163.488C90.6128 160.79 88.0051 158.789 84.2337 158.789C75.2782 158.789 73.6343 170.075 67.978 175.164V126.48C67.978 119.622 73.5381 114.062 80.3969 114.062C87.2556 114.062 92.8158 119.622 92.8158 126.48V163.488ZM139.731 164.359C137.382 161.233 134.636 158.789 130.468 158.789C120.505 158.789 119.591 172.759 112.134 176.621V155.091C112.134 147.47 118.312 141.292 125.933 141.292C133.554 141.292 139.731 147.47 139.731 155.091V164.359ZM183.887 161.943C181.976 160.06 179.709 158.789 176.703 158.789C167.051 158.789 165.892 171.899 159.05 176.23V132.532C159.05 125.673 164.61 120.113 171.469 120.113C178.327 120.113 183.887 125.673 183.887 132.532V161.943Z" fill="black" fill-opacity="0.298514"/>
<path fill-rule="evenodd" clip-rule="evenodd" d="M206.912 160.884C203.651 165.814 201.174 171.887 194.545 171.887C183.388 171.887 182.784 154.684 171.621 154.684C160.458 154.684 161.062 171.887 149.905 171.887C138.747 171.887 138.144 154.684 126.981 154.684C115.818 154.684 116.421 171.887 105.264 171.887C94.1072 171.887 93.504 154.684 82.3409 154.684C71.1779 154.684 71.7811 171.887 60.624 171.887C57.1176 171.887 54.6536 170.188 52.5766 167.858C44.593 153.964 40 137.683 40 120.276C40 69.3132 79.3682 28 127.931 28C176.494 28 215.863 69.3132 215.863 120.276C215.863 134.847 212.644 148.63 206.912 160.884Z" fill="#FB70A9"/>
<path fill-rule="evenodd" clip-rule="evenodd" d="M187.884 170.049C210.927 135.77 211.523 97.746 189.671 55.978C205.868 72.5718 215.862 95.3437 215.862 120.47C215.862 134.987 212.526 148.718 206.585 160.925C203.206 165.836 200.638 171.887 193.766 171.887C191.415 171.887 189.515 171.179 187.884 170.049Z" fill="#E24CA6"/>
<path fill-rule="evenodd" clip-rule="evenodd" d="M123.217 143.295C153.795 143.295 166.67 125.555 166.67 100.363C166.67 75.1709 147.215 51.9814 123.217 51.9814C99.2183 51.9814 79.7637 75.1709 79.7637 100.363C79.7637 125.555 92.6387 143.295 123.217 143.295Z" fill="white"/>
<path d="M111.533 101.788C120.533 101.788 127.828 93.7357 127.828 83.8023C127.828 73.869 120.533 65.8164 111.533 65.8164C102.534 65.8164 95.2383 73.869 95.2383 83.8023C95.2383 93.7357 102.534 101.788 111.533 101.788Z" fill="#030776"/>
<path d="M108.817 87.9535C113.317 87.9535 116.964 84.2369 116.964 79.6523C116.964 75.0676 113.317 71.3511 108.817 71.3511C104.317 71.3511 100.669 75.0676 100.669 79.6523C100.669 84.2369 104.317 87.9535 108.817 87.9535Z" fill="white"/>
</svg>

<svg xmlns="http://www.w3.org/2000/svg" width="256" height="256" fill="none"><path fill="#282828" d="M196 0H60C26.863 0 0 26.863 0 60v136c0 33.137 26.863 60 60 60h136c33.137 0 60-26.863 60-60V60c0-33.137-26.863-60-60-60"/><path fill="#FB70A9" fill-rule="evenodd" d="M206.912 160.884c-3.261 4.93-5.738 11.003-12.367 11.003-11.157 0-11.761-17.203-22.924-17.203s-10.559 17.203-21.716 17.203-11.761-17.203-22.924-17.203-10.56 17.203-21.717 17.203-11.76-17.203-22.923-17.203-10.56 17.203-21.717 17.203c-3.506 0-5.97-1.699-8.047-4.029C44.593 153.964 40 137.683 40 120.276 40 69.313 79.368 28 127.931 28s87.932 41.313 87.932 92.276c0 14.571-3.219 28.354-8.951 40.608" clip-rule="evenodd"/><path fill="#4E56A6" d="M92.816 151.774v38.22c0 6.859-5.56 12.419-12.42 12.419-6.858 0-12.418-5.56-12.418-12.419v-46.14c2.318-4.255 4.966-7.938 9.74-7.938 7.77 0 10.486 9.762 15.098 15.858m46.915 1.991v60.44c0 7.621-6.177 13.799-13.798 13.799s-13.799-6.178-13.799-13.799v-68.406c2.598-5.01 5.277-9.883 10.767-9.883 8.693 0 11.059 12.214 16.83 17.849m44.156-1.109v43.878c0 6.858-5.56 12.419-12.418 12.419-6.859 0-12.419-5.561-12.419-12.419v-53.931c2.162-3.701 4.737-6.687 9.035-6.687 8.158 0 10.744 10.758 15.802 16.74"/><path fill="#000" fill-opacity=".299" d="M92.816 163.488c-2.203-2.698-4.81-4.699-8.582-4.699-8.956 0-10.6 11.286-16.256 16.375V126.48c0-6.858 5.56-12.418 12.419-12.418s12.419 5.56 12.419 12.418zm46.915.871c-2.349-3.126-5.095-5.57-9.263-5.57-9.963 0-10.877 13.97-18.334 17.832v-21.53c0-7.621 6.178-13.799 13.799-13.799s13.798 6.178 13.798 13.799zm44.156-2.416c-1.911-1.883-4.178-3.154-7.184-3.154-9.652 0-10.811 13.11-17.653 17.441v-43.698c0-6.859 5.56-12.419 12.419-12.419 6.858 0 12.418 5.56 12.418 12.419z"/><path fill="#FB70A9" fill-rule="evenodd" d="M206.912 160.884c-3.261 4.93-5.738 11.003-12.367 11.003-11.157 0-11.761-17.203-22.924-17.203s-10.559 17.203-21.716 17.203-11.761-17.203-22.924-17.203-10.56 17.203-21.717 17.203-11.76-17.203-22.923-17.203-10.56 17.203-21.717 17.203c-3.506 0-5.97-1.699-8.047-4.029C44.593 153.964 40 137.683 40 120.276 40 69.313 79.368 28 127.931 28s87.932 41.313 87.932 92.276c0 14.571-3.219 28.354-8.951 40.608" clip-rule="evenodd"/><path fill="#E24CA6" fill-rule="evenodd" d="M187.884 170.049q34.565-51.419 1.787-114.071c16.197 16.594 26.191 39.366 26.191 64.492 0 14.517-3.336 28.248-9.277 40.455-3.379 4.911-5.947 10.962-12.819 10.962-2.351 0-4.251-.708-5.882-1.838" clip-rule="evenodd"/><path fill="#fff" fill-rule="evenodd" d="M123.217 143.295c30.578 0 43.453-17.74 43.453-42.932s-19.455-48.382-43.453-48.382-43.453 23.19-43.453 48.382 12.875 42.932 43.453 42.932" clip-rule="evenodd"/><path fill="#030776" d="M111.533 101.788c9 0 16.295-8.052 16.295-17.986 0-9.933-7.295-17.986-16.295-17.986-8.999 0-16.295 8.053-16.295 17.986s7.296 17.986 16.295 17.986"/><path fill="#fff" d="M108.817 87.954c4.5 0 8.147-3.717 8.147-8.302s-3.647-8.3-8.147-8.3-8.148 3.716-8.148 8.3 3.648 8.302 8.148 8.302"/></svg>
